X:1
T:The Rock Island Line
M:3/4
L:1/4
K:C
 F/2G/2| A F D| C A, C| D F G| F2 C| F A c| c A c| d c A| G2 C| F A c/2c/2|\
 c A c| d c A| G F G| A F D| C A, C| D F G| F3-| F2||

